X: 2768
T: Banks Of The Tar, The
R: jig
M: 6/8
K: Dmajor
|:dcd AFD|DFA dcd|~=c3 AGE|EDE GA=c|
dcd AFD|DFA dcd|f2a gec|edc d2A:|
|:f2a gec|ABA GED|f2a gec|ea^g a2e|
f2a gec|ABA GED|=CEG ~=c3|AGE D2d:|

